**kern	**kern	**kern	**kern
*MM60	*MM60	*MM60	*MM60
*k[]	*k[]	*k[]	*k[]
*M2/2	*M2/2	*M2/2	*M2/2
*tb32	*tb32	*tb32	*tb32
=1	=1	=1	=1
1r	1r	2c	1r
.	.	2d	.
=2	=2	=2	=2
1r	1r	2e	1r
.	.	[2f	.
=3	=3	=3	=3
1r	1r	4f]	1r
.	.	4e	.
.	.	4d	.
.	.	4g	.
=4	=4	=4	=4
1r	1r	4e	1r
.	.	8d	.
.	.	8e	.
.	.	4c	.
.	.	[4cc	.
=5	=5	=5	=5
1r	2G	4cc]	1r
.	.	2b	.
.	2A	.	.
.	.	[4a	.
=6	=6	=6	=6
1r	2B	4a]	1r
.	.	2g	.
.	[2c	.	.
.	.	8f#	.
.	.	8e	.
=7	=7	=7	=7
1r	4c]	8f#	1r
.	.	8d	.
.	4B	2g	.
.	4A	.	.
.	4d	4f#	.
=8	=8	=8	=8
1r	4B	[2g	1r
.	8A	.	.
.	8B	.	.
.	4G	8g]	.
.	.	8a	.
.	[4g	8b	.
.	.	8cc	.
=9	=9	=9	=9
1r	4g]	8a	1r
.	.	8b	.
.	2f	8cc	.
.	.	8dd	.
.	.	8g	.
.	.	8a	.
.	[4e	8b	.
.	.	8cc	.
=10	=10	=10	=10
1r	4e]	[1f	1r
.	8d	.	.
.	8c	.	.
.	8d	.	.
.	8c	.	.
.	8B	.	.
.	8A	.	.
=11	=11	=11	=11
1r	8B	8f]	1r
.	8G	8g	.
.	2c	8e	.
.	.	8f	.
.	.	8d	.
.	.	8e	.
.	4B	8f	.
.	.	8g	.
=12	=12	=12	=12
2C	8c	4.e	1r
.	8G	.	.
.	[4A	.	.
.	.	8c	.
2D	8A]	4.f	.
.	8c	.	.
.	[4B	.	.
.	.	8a	.
=13	=13	=13	=13
2E	8B]	4.g	1r
.	8G	.	.
.	[4c	.	.
.	.	8e	.
[2F	8c]	8a	.
.	8A	8g	.
.	8d	8f	.
.	8c	8a	.
=14	=14	=14	=14
4F]	8B	4d	1r
.	8G	.	.
4E	2c	8r	.
.	.	8e	.
4D	.	4fW	.
4G	4B	8eM	.
.	.	8d	.
=15	=15	=15	=15
4E	8c	8e	1r
.	8d	8f	.
8D	8d	8fM	.
8E	16c	16e	.
.	16d	16f	.
4C	8e	8g	.
.	8D	8f#	.
[4c	8E	8g	.
.	8F#	8a	.
=16	=16	=16	=16
8c]	8G	4d	2g
8c	8A	.	.
8B	8B	2g	.
8c	8G	.	.
8A	4c	.	2a
8d	.	.	.
8c	[4d	4f#	.
8d	.	.	.
=17	=17	=17	=17
8G	8d]	2.g	2b
8B	8d	.	.
8A	8c	.	.
8B	8d	.	.
8E	8G	.	[2cc
8A	8c	.	.
8G	8B	4e	.
8A	8c	.	.
=18	=18	=18	=18
4F#	4A	2d	4cc]
4G	2G	.	4b
4C	.	4e	4aT
4D	4F#	[4d	4dd
=19	=19	=19	=19
2GG	2G	8d]	4b
.	.	8d	.
.	.	8c	8a
.	.	8d	8b
4r	8r	2B	4g
.	8G	.	.
4GG	8F	.	[4gg
.	8G	.	.
=20	=20	=20	=20
2AA	8E	2c	4gg]
.	8A	.	.
.	8G	.	2ff
.	8A	.	.
2BB	8D	2d	.
.	8G	.	.
.	8F	.	8ee
.	8G	.	8dd
=21	=21	=21	=21
2C	4C	8r	2ee
.	.	8dd	.
.	4G	8cc	.
.	.	8b-	.
4r	4.c	8a	8r
.	.	8g	8cc
4C	.	8f	8dd
.	8B-	8e	8ee
=22	=22	=22	=22
2D	4A	4d	8ff
.	.	.	8dd
.	2d	4r	8cc
.	.	.	8b-
2E	.	2r	8gg
.	.	.	8b-
.	[4c	.	8a
.	.	.	8g
=23	=23	=23	=23
2F	2c]	8r	8a
.	.	8e	8cc
.	.	8f	8dd
.	.	8g	8ee
4r	2r	8a	8ff
.	.	8b-	8gg
4F	.	8cc	[4aa
.	.	8a	.
=24	=24	=24	=24
2BB	8r	2dd	4aa]
.	8D	.	.
.	8E	.	2gg
.	8F	.	.
2C#	8E	4a	.
.	8F	.	.
.	8G	4r	8ff
.	8A	.	8ee
=25	=25	=25	=25
2D	4D	8r	2ff
.	.	8ee	.
.	4A	8dd	.
.	.	8cc	.
4r	4.d	8b	8r
.	.	8a	8dd
4D	.	8g	8ee
.	8c	8f#	8ff#
=26	=26	=26	=26
2E	4B	4e	8gg
.	.	.	8ee
.	2e	4r	8dd
.	.	.	8cc
2F#	.	2r	8aa
.	.	.	8cc
.	[4d	.	8b
.	.	.	8a
=27	=27	=27	=27
4G	4d]	8r	8b
.	.	8f#	8dd
4F#	4r	8g	8ee
.	.	8a	8ff#
4E	2r	8b	8gg
.	.	8cc	8aa
4D	.	8dd	[4bb
.	.	8b	.
=28	=28	=28	=28
2C	2G	8ee	8bb]
.	.	8e	8gg
.	.	8d	8ff#
.	.	8c	8ee
4r	2A	8r	8aa
.	.	8g	8ee
4C	.	8f#	8dd
.	.	8e	8cc
=29	=29	=29	=29
2D	2B	8d	8aa
.	.	8a	8ff#
.	.	8g	8ee
.	.	8f#	8dd
4r	[2c	[2e	8gg
.	.	.	8dd
4E	.	.	8cc
.	.	.	8b
=30	=30	=30	=30
4F#	4c]	4e]	8a
.	.	.	8g
2G	4B	4d	8a
.	.	.	8b
.	4A	8r	[2cc
.	.	8A	.
4F#	4d	8G	.
.	.	8A	.
=31	=31	=31	=31
[2G	8B	4d	4cc]
.	8A	.	.
.	8B	8g	8b
.	8c	8f#	8a
8G]	[2d	4g	[2b
8GG	.	.	.
8BB	.	4f	.
8GG	.	.	.
=32	=32	=32	=32
[2C	8d]	[2e	8b]
.	8B	.	8g
.	8A	.	8f#
.	8B	.	8g
8C]	[2E	8e]	[2a
8BB	.	8d	.
8C	.	8e	.
8AA	.	8c	.
=33	=33	=33	=33
[2E	2E_	8B	8a]
.	.	8A	8f#
.	.	8G	8e
.	.	8A	8f#
8E]	4E]	4B	[2g
8D	.	.	.
8E	[4G	8c	.
8BB	.	8d	.
=34	=34	=34	=34
8C	8G]	2e	4g]
8BB	8G	.	.
8C	8A	.	4cc
8AA	8B	.	.
4D	8c	2f#	4a
.	8B	.	.
4DD	8A	.	4dd
.	8B	.	.
=35	=35	=35	=35
[1GG	8G	2g	4b
.	8B	.	.
.	8G	.	2gg
.	8E	.	.
.	8C	2a	.
.	8c	.	.
.	8A	.	4ff#
.	8F#	.	.
=36	=36	=36	=36
2GG]	8D	2b	4gg
.	8d	.	.
.	8B	.	2bb
.	8G	.	.
2r	8E	[2cc	.
.	8e	.	.
.	8c	.	8aa
.	8A	.	8gg
=37	=37	=37	=37
1r	8F#	4cc]	4aa
.	8d	.	.
.	8G	4b	2gg
.	8B	.	.
.	8c	4a	.
.	8A	.	.
.	8D	4dd	4ff#
.	8d	.	.
=38	=38	=38	=38
1r	8GG	4b	2gg
.	8d	.	.
.	8c	8a	.
.	8d	8b	.
.	8B	4g	4r
.	8d	.	.
.	8G	[4dd	4ff
.	8B	.	.
=39	=39	=39	=39
1r	8C	8dd]	2ee
.	8e	8cc	.
.	8d	8b	.
.	8e	8cc	.
.	8c	4a	4r
.	8e	.	.
.	8A	[4cc	4aa
.	8c	.	.
=40	=40	=40	=40
1r	8F#	4cc]	2.dd
.	8A	.	.
.	8d	8b	.
.	8F#	8a	.
.	8G#	[2b	.
.	8B	.	.
.	8e	.	8cc
.	8G#	.	8b
=41	=41	=41	=41
1r	8A	4b]	2cc
.	8a	.	.
.	8f	2a	.
.	8d	.	.
.	8B	.	2dd
.	8d	.	.
.	8B	[4g	.
.	8G	.	.
=42	=42	=42	=42
1r	8c	4g]	2ee
.	8e	.	.
.	8c	2a	.
.	8A	.	.
.	8d	.	[2ff
.	8f	.	.
.	8d	8b	.
.	8A	8cc	.
=43	=43	=43	=43
1r	8B	4dd	4ff]
.	8G	.	.
.	8c	2cc	4ee
.	8e	.	.
.	8g	.	4ddT
.	8f	.	.
.	8g	4b	4gg
.	8G	.	.
=44	=44	=44	=44
1r	8c	4cc	4eeM
.	8d	.	.
.	8B	[4g	8dd
.	8c	.	8ee
.	2A	8g]	4cc
.	.	8c	.
.	.	8e	[4ccc
.	.	8f#	.
=45	=45	=45	=45
2GG	8G	4g	4ccc]
.	8B	.	.
.	8d	2gg	2bb
.	8g	.	.
2AA	8cc	.	.
.	8ee	.	.
.	8gg	[4ff#	[4aa
.	8ccc	.	.
=46	=46	=46	=46
2BB	[2dd	8ff#]	4aa]
.	.	8dd	.
.	.	8b	2gg
.	.	8g	.
[2C	4dd]	8e	.
.	.	8b	.
.	8cc	8a	8ff#
.	8b	8g	8ee
=47	=47	=47	=47
4C]	4A	4dd	8ff#
.	.	.	8dd
4BB	4B	8r	2gg
.	.	8dd	.
4AA	4c	8cc	.
.	.	8b	.
4D	[4d	8a	4ff#
.	.	8b	.
=48	=48	=48	=48
4BB	8d]	2g	[2gg
.	8d	.	.
8AA	8c	.	.
8BB	8d	.	.
4GG	8B	2r	8gg]
.	8G	.	8dd
[4G	8A	.	8ccM
.	8B	.	8b
=49	=49	=49	=49
4G]	8c	1r	8a
.	8d	.	8b
2F	8e	.	8cc
.	8f	.	8dd
.	8B	.	8g
.	8c	.	8a
[4E	8d	.	8b
.	8e	.	8cc
=50	=50	=50	=50
4E]	8A	1r	8f#
.	8B	.	8g#
2D	8c	.	8a
.	8d	.	8b
.	8G#	.	4e
.	8B	.	.
[4C	8A	.	4ee
.	8c	.	.
=51	=51	=51	=51
4C]	8F#	1r	4a
.	8A	.	.
4BB	8G#	.	2dd
.	8B	.	.
4C	8E	.	.
.	8G#	.	.
4AA	8A	.	[4cc
.	8c	.	.
=52	=52	=52	=52
4F	8d	2a	4cc]
.	8c	.	.
4E	8d	.	2aa
.	8e	.	.
4F	8d	2b	.
.	8c	.	.
4D	8B	.	8gg
.	8A	.	8ff
=53	=53	=53	=53
4E	8G#	2cc	4ee
.	8B	.	.
4AA	8A	.	2ccc
.	8G	.	.
8D	8F	[2dd	.
8C	8E	.	.
8D	8F	.	8bb
8BB	8D	.	8aa
=54	=54	=54	=54
4C	4E	4dd]	8gg#
.	.	.	8ee
4F	4r	4cc	2aa
4D	2r	4b	.
4E	.	4ee	4gg#
=55	=55	=55	=55
4AA	8r	4cc	2aa
.	8e	.	.
4r	8d	8b	.
.	8e	8cc	.
2r	8c	2a	4r
.	8e	.	.
.	8c	.	4aa
.	8A	.	.
=56	=56	=56	=56
4r	8E	8r	2gg
.	8g	8ee	.
4E	8f	8dd	.
.	8g	8ee	.
4A	8e	8cc#	4r
.	8g	8ee	.
4AA	8e	8cc#	4gg
.	8c#	8a	.
=57	=57	=57	=57
2D	8A	4d	2ff
.	8d	.	.
.	8c	4a	.
.	8d	.	.
2r	8B	[2dd	4r
.	8d	.	.
.	8B	.	4ff
.	8G	.	.
=58	=58	=58	=58
4r	8C	8dd]	2.ee
.	8e	8cc	.
4C	8d	8b	.
.	8e	8cc	.
4F	8c	[2a	.
.	8e	.	.
4AA	8c	.	4ee
.	8A	.	.
=59	=59	=59	=59
4BB	8D	8a]	2.dd
.	8d	8b	.
4D	8c	8a	.
.	8d	8b	.
4E	8B	4g#	.
.	8e	.	.
4GG#	8B	4e	[4dd
.	8G#	.	.
=60	=60	=60	=60
8AA	4E	4a	8dd]
8A	.	.	8cc
8G	4r	4r	8b
8A	.	.	8a
8F#	4r	4r	[2aa
8G	.	.	.
8E	4e	4cc	.
8F#	.	.	.
=61	=61	=61	=61
8D#	2f#	2b	4aa]
8B	.	.	.
8A	.	.	8ggM
8B	.	.	8ff#
8G	4r	4r	4bb
8A	.	.	.
8F#	4f#	4dd#	[4aa
8G	.	.	.
=62	=62	=62	=62
2E	4B	4ee	8aa]
.	.	.	8gg
.	2e	4r	8ee
.	.	.	8cc
2F#	.	2r	8a
.	.	.	8aa
.	4d#	.	8ff#
.	.	.	8dd#
=63	=63	=63	=63
2G	1e	4r	8b
.	.	.	8bb
.	.	[4b	8gg
.	.	.	8ee
[2A	.	8b]	8cc
.	.	8a	8ccc
.	.	8f#	8aa
.	.	8a	8ff#
=64	=64	=64	=64
4A]	4f#	4b	8dd#
.	.	.	8b
4G	4r	8r	2ee
.	.	8b	.
8F#	4r	8a	.
8B	.	8g	.
8A	4B	8f#	4dd#
8B	.	8g	.
=65	=65	=65	=65
8G	4B	4e	4ee
8A	.	.	.
8F#	4r	4r	4b
8G	.	.	.
4E	8r	8r	[2gg
.	8E	8ee	.
4r	8G	8dd	.
.	8E	8ee	.
=66	=66	=66	=66
2r	8A	8cc#	2.gg]
.	8E	8ee	.
.	8A	8cc#	.
.	8c#	8a	.
8r	4e	4e	.
8A	.	.	.
8G	4A	4e	4cc#
8A	.	.	.
=67	=67	=67	=67
8F	4A	4d	4dd
8G	.	.	.
8E	4r	4r	4a
8F	.	.	.
4D	8r	8r	[2ff
.	8D	8dd	.
4r	8F	8cc	.
.	8D	8dd	.
=68	=68	=68	=68
2r	8G	8b	2.ff]
.	8D	8dd	.
.	8G	8b	.
.	8B	8g	.
8r	4d	4d	.
8G	.	.	.
8F	4G	4d	4b
8G	.	.	.
=69	=69	=69	=69
8E	4G	4e	4cc
8F	.	.	.
8D	4r	4f	4dd
8E	.	.	.
4C	8r	8g	2ee
.	8c	8a	.
[4c	8B	8g	.
.	8c	8a	.
=70	=70	=70	=70
4c]	8A	8f#	2dd
.	8B	8g#	.
2B	8c	8a	.
.	8d	8b	.
.	8G#	8e	2cc
.	8A	8f#	.
[4A	8B	8g#	.
.	8c	8a	.
=71	=71	=71	=71
4A]	8d	8f	[2b
.	8c	8e	.
8G#	2d	2f	.
8B	.	.	.
[2C	.	.	4b]
.	8c	8e	8aM
.	8B	8d	8g#
=72	=72	=72	=72
8C]	8c	4e	4a
8E	8d	.	.
8AA	2e	[2.a	[4cc
8C	.	.	.
2FF#	.	.	8cc]
.	.	.	8b
.	[4d	.	8cc
.	.	.	8aa
=73	=73	=73	=73
2GG	4d]	8a]	4.b
.	.	8f#	.
.	4r	[4g	.
.	.	.	8b
2AA	2r	8g]	4.cc
.	.	8f#	.
.	.	[4g	.
.	.	.	8cc
=74	=74	=74	=74
2BB	1r	8g]	4.dd
.	.	8f#	.
.	.	[4g	.
.	.	.	8dd
[2C	.	8g]	4.ee
.	.	8f#	.
.	.	[4g	.
.	.	.	8ee
=75	=75	=75	=75
4C]	1r	8g]	4a
.	.	8f#	.
4BB	.	[4g	8r
.	.	.	8b
4AA	.	8g]	4.cc
.	.	8e	.
4D	.	[4f#	.
.	.	.	8a
=76	=76	=76	=76
4BB	1r	8f#]	[2dd
.	.	8g	.
8AA	.	8f#	.
8BB	.	8g	.
4GG	.	8B	8dd]
.	.	8e	8gg
[4G	.	8d	8ff#
.	.	8e	8gg
=77	=77	=77	=77
4G]	1r	8c#	8a
.	.	8e	8cc#
8F	.	8d	8b
8E	.	8e	8cc#
[2F	.	8A	8dd
.	.	8d	8ff
.	.	8c#	8ee
.	.	8d	8ff
=78	=78	=78	=78
4F]	1r	8B	8g
.	.	8d	8b
8E	.	8c	8a
8D	.	8d	8b
[2E	.	8G	8cc
.	.	8c	8ee
.	.	8B	8dd
.	.	8c	8ee
=79	=79	=79	=79
8E]	2A	2c	8ff
8F	.	.	8aa
8E	.	.	8gg
8F	.	.	8aa
8D	2B	2d	8ff
8G	.	.	8ee
8F	.	.	8dd
8G	.	.	8ff
=80	=80	=80	=80
8C	2c	2e	8ee
8D	.	.	8ff
8BB	.	.	8dd
8C	.	.	8ee
8AA	2F	[2f	8cc
8D	.	.	8b
8C	.	.	8a
8D	.	.	8cc
=81	=81	=81	=81
4GG	4G	4f]	8b
.	.	.	8g
4AA	4r	4e	[4cc
4FF	2r	4d	8cc]
.	.	.	8dd
4GG	.	4g	[4b-
=82	=82	=82	=82
2C	1r	4e	8b-]
.	.	.	8gg
.	.	8d	8ff
.	.	8e	8gg
8r	.	8c	[2a
8D	.	8f	.
8C	.	8e	.
8D	.	8f	.
=83	=83	=83	=83
2BB-	1r	8d	4a]
.	.	8c	.
.	.	8B-	8g
.	.	8A	8f
8r	.	8G	[2g
8C	.	8e	.
8BB-	.	8d	.
8C	.	8e	.
=84	=84	=84	=84
4AA	2F	4c	8g]
.	.	.	8f
4D	.	2d	8g
.	.	.	8a
4GG	2G	.	8b-
.	.	.	8cc
4C	.	[4c	8dd
.	.	.	8ee
=85	=85	=85	=85
2C	2A	8c]	[1ff
.	.	8cc	.
.	.	8dd	.
.	.	8ee-	.
2r	[2B-	8dd	.
.	.	8cc	.
.	.	8b-	.
.	.	8a	.
=86	=86	=86	=86
1r	4B-]	4g	8ff]
.	.	.	8aa
.	4A	4r	8gg
.	.	.	8ff
.	4G	8r	8ee
.	.	8b-	8dd
.	4c	8a	[4ee
.	.	8g	.
=87	=87	=87	=87
1r	4AM	[2f	8ee]
.	.	.	8dd
.	8G	.	8ee
.	8A	.	8cc#
.	4F	8f]	[2dd
.	.	8e	.
.	4B-	8f	.
.	.	8d	.
=88	=88	=88	=88
1r	4G	2e	8dd]
.	.	.	8cc#
.	8F	.	8dd
.	8G	.	8b
.	4E	2r	8cc#
.	.	.	8dd
.	4A	.	8b
.	.	.	8cc#
=89	=89	=89	=89
1r	8F	2d	4dd
.	8A	.	.
.	8F	.	4r
.	8D	.	.
.	8C#	2e	2r
.	8E	.	.
.	8C#	.	.
.	8AA	.	.
=90	=90	=90	=90
1r	4DD	2f	8r
.	.	.	8ff
.	4D	.	8dd
.	.	.	8b-
.	4E	[2g	8g
.	.	.	8gg
.	4EE	.	8ee
.	.	.	8cc#
=91	=91	=91	=91
1r	8FF	4g]	8a
.	8EE	.	8cc#
.	8FF	4f	2dd
.	8GG	.	.
.	8AA	4e	.
.	8BB	.	.
.	8C	4a	4cc
.	8AA	.	.
=92	=92	=92	=92
1r	8D	4f#	[2cc
.	8E	.	.
.	8C	8e	.
.	8D	8f#	.
.	8BB	4d	8cc]
.	8A	.	8cc
.	8G	[4dd	8b
.	8F#	.	8a
=93	=93	=93	=93
1r	8E	4dd]	8g
.	8AA	.	8b
.	8BB	2cc	8a
.	8C	.	8g
.	8D	.	8f#
.	8GG	.	8a
.	8AA	[4b	8g
.	8BB	.	8f#
=94	=94	=94	=94
1r	8C	8b]	2e
.	8G	8b	.
.	8A	8a	.
.	8B	8g	.
.	[2c	8a	2ee
.	.	8b	.
.	.	8g	.
.	.	8a	.
=95	=95	=95	=95
1r	4c]	8f#	4.dd
.	.	8d	.
.	4B	2g	.
.	.	.	8dd
.	4A	.	8cc
.	.	.	8b
.	4d	4f#	8a
.	.	.	8cc
=96	=96	=96	=96
1r	2G	4g	8b
.	.	.	8dd
.	.	4d	8b
.	.	.	8g
.	4r	[2e	8r
.	.	.	16gg
.	.	.	16ff
.	4c	.	16ee
.	.	.	16dd
.	.	.	16cc
.	.	.	16b
=97	=97	=97	=97
1r	2F	4e]	8a
.	.	.	8cc
.	.	4c	8a
.	.	.	8f
.	4r	[2d	8r
.	.	.	16ff
.	.	.	16ee
.	4B	.	16dd
.	.	.	16cc
.	.	.	16b
.	.	.	16a
=98	=98	=98	=98
1r	2E	4d]	8g
.	.	.	8b
.	.	4B	8g
.	.	.	8e
.	4r	[2c	8r
.	.	.	16ee
.	.	.	16dd
.	4A	.	16cc
.	.	.	16b
.	.	.	16a
.	.	.	16g
=99	=99	=99	=99
1r	2D	4c]	8f
.	.	.	8a
.	.	4A	8f
.	.	.	8d
.	4r	2B	8r
.	.	.	8dd
.	[4G	.	8b
.	.	.	8g
=100	=100	=100	=100
2CC	4G]	4c	8e
.	.	.	8ee
.	2A	[4e	8cc
.	.	.	8a
2DD	.	8e]	8f
.	.	8d	8ff
.	[4B	[4f	8dd
.	.	.	8b
=101	=101	=101	=101
2EE	4B]	8f]	8g
.	.	8e	8gg
.	2c	[4g	8ee
.	.	.	8cc
[2FF	.	8g]	8a
.	.	8f	8aa
.	[4d	4a	8ff
.	.	.	8dd
=102	=102	=102	=102
4FF]	4d]	2g	8b
.	.	.	8dd
4EE	2c	.	8gg
.	.	.	8cc
4DD	.	8r	4.ff
.	.	8a	.
4GG	4B	4g	.
.	.	.	[8ff
=103	=103	=103	=103
4CC	8c	2g	8ff]
.	8C	.	8ee
4DD	8E	.	8cc
.	8G	.	8ee
4EE	[2c	4.g	8g
.	.	.	8cc
4CC	.	.	[4ee
.	.	8b-	.
=104	=104	=104	=104
4FF	8c]	1a	8ee]
.	8F	.	8aa
4GG	8A	.	8ff
.	8c	.	8ee
4AA	[2f	.	8dd
.	.	.	8ff
4FF	.	.	8dd
.	.	.	8cc
=105	=105	=105	=105
[1GG	8f]	4.g	8b
.	8G	.	8dd
.	8B	.	[4gg
.	8d	8a	.
.	8f	2b	8gg]
.	8a	.	8ff
.	8g	.	8ee
.	8f	.	8dd
=106	=106	=106	=106
1GG_	8e	4r	2cc
.	8g	.	.
.	8e	2g	.
.	8c	.	.
.	8B	.	2dd
.	8d	.	.
.	8B	[4g	.
.	8G	.	.
=107	=107	=107	=107
1GG_	8E	4g]	2ee
.	8G	.	.
.	8E	[4cc	.
.	8C	.	.
.	8AA	8cc]	[2ff
.	8C	8ee	.
.	8BB	8dd	.
.	8AA	8cc	.
=108	=108	=108	=108
4GG]	8BB	4dd	4ff]
.	8GG	.	.
4AA	8C	2cc	4ee
.	8E	.	.
4FF	8A	.	4dd
.	8F	.	.
4GG	8D	4b	4gg
.	8B	.	.
=109	=109	=109	=109
4C	4E 4G	4cc	4ee
4D	4F 4B	4f 4b	8dd
.	.	.	8ee
4E	4G 4c	4e 4g	4cc
4F	4A 4c	4d 4f 4a	4dd
=110	=110	=110	=110
2G	2G 2c	2e	2g
2GG	2D 2G 2d	2f 2g	2bT
=111	=111	=111	=111
1CC	1C 1G	1e 1g	1cc
==	==	==	==
*-	*-	*-	*-
